!!!OTL: GUTEN ABE VRENELI
!!!ARE: Europa, Mitteleuropa, Schweiz
!!!SCT: E0590
!!!YEM: Copyright 1995, estate of Helmut Schaffrath.
**kern
*ICvox
*Ivox
*M2/4
*k[f#c#g#]
*A:
=1
{8.a
16cc#
8ee
8cc#
=2
8cc#
8b
4b}
=3
{8.b
16dd
8ff#
8dd
=4
8dd
8cc#
4cc#}
=5
{8.a
16cc#
8ee
8cc#
=6
8cc#
8b
4b}
=7
{8dd
8g#
8a
8g#
=8
4a
4r}
==
!!!AGN: Liebes - Lied, Kilt - Lied
!!!ONB: ESAC (Essen Associative Code) Database: ERK1
!!!AMT: simple duple
!!!AIN: vox
!!!EED: Helmut Schaffrath
!!!EEV: 1.0
*-
